svgs/sharp-solid/garage.svg

<svg xmlns="http://www.w3.org/2000/svg" viewBox="0 0 640 512"><!--! Font Awesome Pro 6.6.0 by @fontawesome - https://fontawesome.com License - https://fontawesome.com/license (Commercial License) Copyright 2024 Fonticons, Inc. --><path d="M0 128L0 512l96 0 0-320 448 0 0 320 96 0 0-384L320 0 0 128zm512 96l-384 0 0 96 384 0 0-96zM128 512l384 0 0-160-384 0 0 160zm128-96l16 0 96 0 16 0 0 32-16 0-96 0-16 0 0-32z"/></svg>

<svg xmlns="http://www.w3.org/2000/svg" viewBox="0 0 640 512"><!--! Font Awesome Pro 6.4.0 by @fontawesome - https://fontawesome.com License - https://fontawesome.com/license (Commercial License) Copyright 2023 Fonticons, Inc. --><path d="M0 128V512H96V192H544V512h96V128L320 0 0 128zm512 96H128v96H512V224zM128 512H512V352H128V512zm128-96h16 96 16v32H368 272 256V416z"/></svg>
